Avidclan_Website/assets/images/interview.svg

<?xml version="1.0"?>
<svg xmlns="http://www.w3.org/2000/svg" xmlns:xlink="http://www.w3.org/1999/xlink" xmlns:svgjs="http://svgjs.com/svgjs" version="1.1" width="512" height="512" x="0" y="0" viewBox="0 0 512 512" style="enable-background:new 0 0 512 512" xml:space="preserve" class=""><g>
<g xmlns="http://www.w3.org/2000/svg">
	<g>
		<path d="M62.74,494.93c-1.86-1.861-4.44-2.93-7.07-2.93c-2.64,0-5.21,1.069-7.07,2.93c-1.87,1.86-2.93,4.44-2.93,7.07    s1.06,5.21,2.93,7.069c1.86,1.86,4.431,2.931,7.07,2.931c2.63,0,5.21-1.07,7.07-2.931c1.859-1.859,2.93-4.439,2.93-7.069    S64.6,496.79,62.74,494.93z" fill="#007bfc" data-original="#000000" style="" class=""/>
	</g>
</g>
<g xmlns="http://www.w3.org/2000/svg">
	<g>
		<path d="M373.069,424.26c-1.859-1.861-4.439-2.93-7.069-2.93s-5.21,1.069-7.07,2.93c-1.86,1.861-2.93,4.44-2.93,7.07    c0,2.64,1.069,5.21,2.93,7.069c1.86,1.86,4.44,2.931,7.07,2.931s5.21-1.07,7.069-2.931c1.86-1.859,2.931-4.43,2.931-7.069    C376,428.7,374.93,426.12,373.069,424.26z" fill="#007bfc" data-original="#000000" style="" class=""/>
	</g>
</g>
<g xmlns="http://www.w3.org/2000/svg">
	<g>
		<path d="M479.747,161.62C487.314,154.02,492,143.547,492,132v-8c0-23.159-18.841-42-42-42s-42,18.841-42,42v8    c0,11.549,4.687,22.022,12.256,29.623c-16.413,9.014-28.333,25.234-31.45,44.377H343c-16.542,0-30,13.458-30,30    c0,3.506,0.61,6.87,1.72,10H197.28c1.11-3.13,1.72-6.494,1.72-10c0-16.542-13.458-30-30-30h-45.806    c-3.117-19.143-15.037-35.364-31.45-44.377C99.313,154.022,104,143.549,104,132v-8c0-23.159-18.841-42-42-42s-42,18.841-42,42v8    c0,11.547,4.686,22.02,12.253,29.62C13.049,172.167,0,192.586,0,216v100v12.167C0,359.505,25.495,385,56.833,385H136v95.5    c0,4.058,0.78,7.935,2.183,11.5H98.667c-5.522,0-10,4.478-10,10c0,5.522,4.478,10,10,10h357.666c5.522,0,10-4.478,10-10    c0-5.522-4.478-10-10-10h-82.516c1.403-3.565,2.183-7.442,2.183-11.5V469c0-5.522-4.478-10-10-10c-5.522,0-10,4.478-10,10v11.5    c0,6.341-5.159,11.5-11.5,11.5s-11.5-5.159-11.5-11.5V354.25c0-15.577,12.673-28.25,28.25-28.25H398h8h86v2.167    c0,20.31-16.523,36.833-36.833,36.833H366c-5.522,0-10,4.478-10,10v16c0,5.522,4.478,10,10,10c5.522,0,10-4.478,10-10v-6h79.167    C486.505,385,512,359.505,512,328.167V316V216C512,192.586,498.951,172.167,479.747,161.62z M428,124c0-12.131,9.869-22,22-22    c12.131,0,22,9.869,22,22v8c0,12.131-9.869,22-22,22c-12.131,0-22-9.869-22-22V124z M40,124c0-12.131,9.869-22,22-22    s22,9.869,22,22v8c0,12.131-9.869,22-22,22s-22-9.869-22-22V124z M20,216c0-23.159,18.841-42,42-42s42,18.841,42,42    c0,5.522,4.478,10,10,10h55c5.514,0,10,4.486,10,10c0,5.514-4.486,10-10,10h-58.235c-15.9,0-30.441-8.707-37.95-22.723    c-2.607-4.868-8.669-6.701-13.537-4.092c-4.868,2.607-6.7,8.668-4.092,13.537c10.011,18.687,28.559,30.93,49.373,32.974    C104.197,266.73,104,267.843,104,269v37H20V216z M143.382,306H124v-37c0-1.045-0.16-2.053-0.458-3h19.84    c-3.415,5.888-5.382,12.717-5.382,20C138,293.283,139.966,300.112,143.382,306z M179,480.5c0,6.341-5.159,11.5-11.5,11.5    s-11.5-5.159-11.5-11.5V375c0-5.522-4.478-10-10-10H56.833C36.523,365,20,348.477,20,328.167V326h86h8h36.75    c15.577,0,28.25,12.673,28.25,28.25V480.5z M226,492h-29.183c1.404-3.565,2.183-7.442,2.183-11.5V354.25    c0-10.544-3.409-20.302-9.171-28.25H226V492z M266,492h-20V326h20V492z M315.183,492H286V326h36.171    c-5.761,7.948-9.171,17.706-9.171,28.25V480.5C313,484.558,313.78,488.435,315.183,492z M334,306H178c-11.028,0-20-8.972-20-20    s8.972-20,20-20h156c11.028,0,20,8.972,20,20S345.028,306,334,306z M388,269v37h-19.382c3.415-5.888,5.382-12.717,5.382-20    c0-7.283-1.966-14.112-5.382-20h19.84C388.16,266.947,388,267.955,388,269z M492,306h-84v-37c0-1.157-0.197-2.27-0.559-3.304    c20.814-2.044,39.362-14.287,49.373-32.974c2.608-4.869,0.776-10.93-4.092-13.537c-4.87-2.608-10.929-0.774-13.537,4.092    c-7.509,14.016-22.05,22.723-37.95,22.723H343c-5.514,0-10-4.486-10-10c0-5.514,4.486-10,10-10h55c5.522,0,10-4.478,10-10    c0-23.159,18.841-42,42-42s42,18.841,42,42V306z" fill="#007bfc" data-original="#000000" style="" class=""/>
	</g>
</g>
<g xmlns="http://www.w3.org/2000/svg">
	<g>
		<path d="M328,0H184c-16.542,0-30,13.458-30,30v98c0,16.542,13.458,30,30,30h34.857l30.071,30.071    C250.882,190.023,253.44,191,256,191s5.118-0.977,7.071-2.929L293.143,158H328c16.542,0,30-13.458,30-30V30    C358,13.458,344.542,0,328,0z M338,128c0,5.514-4.486,10-10,10h-39c-2.652,0-5.195,1.054-7.071,2.929L256,166.857l-25.929-25.929    C228.195,139.054,225.652,138,223,138h-39c-5.514,0-10-4.486-10-10V30c0-5.514,4.486-10,10-10h144c5.514,0,10,4.486,10,10V128z" fill="#007bfc" data-original="#000000" style="" class=""/>
	</g>
</g>
<g xmlns="http://www.w3.org/2000/svg">
	<g>
		<path d="M216.069,68.1c-1.859-1.87-4.439-2.93-7.069-2.93s-5.21,1.06-7.07,2.93c-1.86,1.86-2.93,4.44-2.93,7.07    s1.069,5.21,2.93,7.07c1.86,1.86,4.44,2.93,7.07,2.93s5.21-1.07,7.069-2.93c1.86-1.86,2.931-4.44,2.931-7.07    S217.93,69.96,216.069,68.1z" fill="#007bfc" data-original="#000000" style="" class=""/>
	</g>
</g>
<g xmlns="http://www.w3.org/2000/svg">
	<g>
		<path d="M263.069,68.1c-1.859-1.859-4.439-2.93-7.069-2.93s-5.21,1.07-7.07,2.93c-1.86,1.86-2.93,4.44-2.93,7.07    s1.069,5.21,2.93,7.07c1.86,1.86,4.44,2.93,7.07,2.93s5.21-1.07,7.069-2.93c1.86-1.86,2.931-4.44,2.931-7.07    S264.93,69.96,263.069,68.1z" fill="#007bfc" data-original="#000000" style="" class=""/>
	</g>
</g>
<g xmlns="http://www.w3.org/2000/svg">
	<g>
		<path d="M310.069,68.1c-1.859-1.87-4.439-2.93-7.069-2.93s-5.21,1.06-7.07,2.93c-1.86,1.86-2.93,4.44-2.93,7.07    s1.069,5.21,2.93,7.07c1.86,1.86,4.44,2.93,7.07,2.93s5.21-1.07,7.069-2.93c1.86-1.86,2.931-4.44,2.931-7.07    S311.93,69.96,310.069,68.1z" fill="#007bfc" data-original="#000000" style="" class=""/>
	</g>
</g>
<g xmlns="http://www.w3.org/2000/svg">
</g>
<g xmlns="http://www.w3.org/2000/svg">
</g>
<g xmlns="http://www.w3.org/2000/svg">
</g>
<g xmlns="http://www.w3.org/2000/svg">
</g>
<g xmlns="http://www.w3.org/2000/svg">
</g>
<g xmlns="http://www.w3.org/2000/svg">
</g>
<g xmlns="http://www.w3.org/2000/svg">
</g>
<g xmlns="http://www.w3.org/2000/svg">
</g>
<g xmlns="http://www.w3.org/2000/svg">
</g>
<g xmlns="http://www.w3.org/2000/svg">
</g>
<g xmlns="http://www.w3.org/2000/svg">
</g>
<g xmlns="http://www.w3.org/2000/svg">
</g>
<g xmlns="http://www.w3.org/2000/svg">
</g>
<g xmlns="http://www.w3.org/2000/svg">
</g>
<g xmlns="http://www.w3.org/2000/svg">
</g>
</g></svg>

<svg width="512" height="512" viewBox="0 0 512 512" fill="none" xmlns="http://www.w3.org/2000/svg">
<g clip-path="url(#clip0_496_1244)">
<path d="M62.74 494.93C60.88 493.069 58.3 492 55.67 492C53.03 492 50.46 493.069 48.6 494.93C46.73 496.79 45.67 499.37 45.67 502C45.67 504.63 46.73 507.21 48.6 509.069C50.46 510.929 53.031 512 55.67 512C58.3 512 60.88 510.93 62.74 509.069C64.599 507.21 65.67 504.63 65.67 502C65.67 499.37 64.6 496.79 62.74 494.93Z" fill="#0E53BE"/>
<path d="M373.069 424.26C371.21 422.399 368.63 421.33 366 421.33C363.37 421.33 360.79 422.399 358.93 424.26C357.07 426.121 356 428.7 356 431.33C356 433.97 357.069 436.54 358.93 438.399C360.79 440.259 363.37 441.33 366 441.33C368.63 441.33 371.21 440.26 373.069 438.399C374.929 436.54 376 433.969 376 431.33C376 428.7 374.93 426.12 373.069 424.26Z" fill="#0E53BE"/>
<path d="M479.747 161.62C487.314 154.02 492 143.547 492 132V124C492 100.841 473.159 82 450 82C426.841 82 408 100.841 408 124V132C408 143.549 412.687 154.022 420.256 161.623C403.843 170.637 391.923 186.857 388.806 206H343C326.458 206 313 219.458 313 236C313 239.506 313.61 242.87 314.72 246H197.28C198.39 242.87 199 239.506 199 236C199 219.458 185.542 206 169 206H123.194C120.077 186.857 108.157 170.636 91.744 161.623C99.313 154.022 104 143.549 104 132V124C104 100.841 85.159 82 62 82C38.841 82 20 100.841 20 124V132C20 143.547 24.686 154.02 32.253 161.62C13.049 172.167 0 192.586 0 216V316V328.167C0 359.505 25.495 385 56.833 385H136V480.5C136 484.558 136.78 488.435 138.183 492H98.667C93.145 492 88.667 496.478 88.667 502C88.667 507.522 93.145 512 98.667 512H456.333C461.855 512 466.333 507.522 466.333 502C466.333 496.478 461.855 492 456.333 492H373.817C375.22 488.435 376 484.558 376 480.5V469C376 463.478 371.522 459 366 459C360.478 459 356 463.478 356 469V480.5C356 486.841 350.841 492 344.5 492C338.159 492 333 486.841 333 480.5V354.25C333 338.673 345.673 326 361.25 326H398H406H492V328.167C492 348.477 475.477 365 455.167 365H366C360.478 365 356 369.478 356 375V391C356 396.522 360.478 401 366 401C371.522 401 376 396.522 376 391V385H455.167C486.505 385 512 359.505 512 328.167V316V216C512 192.586 498.951 172.167 479.747 161.62ZM428 124C428 111.869 437.869 102 450 102C462.131 102 472 111.869 472 124V132C472 144.131 462.131 154 450 154C437.869 154 428 144.131 428 132V124ZM40 124C40 111.869 49.869 102 62 102C74.131 102 84 111.869 84 124V132C84 144.131 74.131 154 62 154C49.869 154 40 144.131 40 132V124ZM20 216C20 192.841 38.841 174 62 174C85.159 174 104 192.841 104 216C104 221.522 108.478 226 114 226H169C174.514 226 179 230.486 179 236C179 241.514 174.514 246 169 246H110.765C94.865 246 80.324 237.293 72.815 223.277C70.208 218.409 64.146 216.576 59.278 219.185C54.41 221.792 52.578 227.853 55.186 232.722C65.197 251.409 83.745 263.652 104.559 265.696C104.197 266.73 104 267.843 104 269V306H20V216ZM143.382 306H124V269C124 267.955 123.84 266.947 123.542 266H143.382C139.967 271.888 138 278.717 138 286C138 293.283 139.966 300.112 143.382 306ZM179 480.5C179 486.841 173.841 492 167.5 492C161.159 492 156 486.841 156 480.5V375C156 369.478 151.522 365 146 365H56.833C36.523 365 20 348.477 20 328.167V326H106H114H150.75C166.327 326 179 338.673 179 354.25V480.5ZM226 492H196.817C198.221 488.435 199 484.558 199 480.5V354.25C199 343.706 195.591 333.948 189.829 326H226V492ZM266 492H246V326H266V492ZM315.183 492H286V326H322.171C316.41 333.948 313 343.706 313 354.25V480.5C313 484.558 313.78 488.435 315.183 492ZM334 306H178C166.972 306 158 297.028 158 286C158 274.972 166.972 266 178 266H334C345.028 266 354 274.972 354 286C354 297.028 345.028 306 334 306ZM388 269V306H368.618C372.033 300.112 374 293.283 374 286C374 278.717 372.034 271.888 368.618 266H388.458C388.16 266.947 388 267.955 388 269ZM492 306H408V269C408 267.843 407.803 266.73 407.441 265.696C428.255 263.652 446.803 251.409 456.814 232.722C459.422 227.853 457.59 221.792 452.722 219.185C447.852 216.577 441.793 218.411 439.185 223.277C431.676 237.293 417.135 246 401.235 246H343C337.486 246 333 241.514 333 236C333 230.486 337.486 226 343 226H398C403.522 226 408 221.522 408 216C408 192.841 426.841 174 450 174C473.159 174 492 192.841 492 216V306Z" fill="#0E53BE"/>
<path d="M328 0H184C167.458 0 154 13.458 154 30V128C154 144.542 167.458 158 184 158H218.857L248.928 188.071C250.882 190.023 253.44 191 256 191C258.56 191 261.118 190.023 263.071 188.071L293.143 158H328C344.542 158 358 144.542 358 128V30C358 13.458 344.542 0 328 0ZM338 128C338 133.514 333.514 138 328 138H289C286.348 138 283.805 139.054 281.929 140.929L256 166.857L230.071 140.928C228.195 139.054 225.652 138 223 138H184C178.486 138 174 133.514 174 128V30C174 24.486 178.486 20 184 20H328C333.514 20 338 24.486 338 30V128Z" fill="#0E53BE"/>
<path d="M216.069 68.1C214.21 66.23 211.63 65.17 209 65.17C206.37 65.17 203.79 66.23 201.93 68.1C200.07 69.96 199 72.54 199 75.17C199 77.8 200.069 80.38 201.93 82.24C203.79 84.1 206.37 85.17 209 85.17C211.63 85.17 214.21 84.1 216.069 82.24C217.929 80.38 219 77.8 219 75.17C219 72.54 217.93 69.96 216.069 68.1Z" fill="#0E53BE"/>
<path d="M263.069 68.1C261.21 66.241 258.63 65.17 256 65.17C253.37 65.17 250.79 66.24 248.93 68.1C247.07 69.96 246 72.54 246 75.17C246 77.8 247.069 80.38 248.93 82.24C250.79 84.1 253.37 85.17 256 85.17C258.63 85.17 261.21 84.1 263.069 82.24C264.929 80.38 266 77.8 266 75.17C266 72.54 264.93 69.96 263.069 68.1Z" fill="#0E53BE"/>
<path d="M310.069 68.1C308.21 66.23 305.63 65.17 303 65.17C300.37 65.17 297.79 66.23 295.93 68.1C294.07 69.96 293 72.54 293 75.17C293 77.8 294.069 80.38 295.93 82.24C297.79 84.1 300.37 85.17 303 85.17C305.63 85.17 308.21 84.1 310.069 82.24C311.929 80.38 313 77.8 313 75.17C313 72.54 311.93 69.96 310.069 68.1Z" fill="#0E53BE"/>
</g>
<defs>
<clipPath id="clip0_496_1244">
<rect width="512" height="512" fill="white"/>
</clipPath>
</defs>
</svg>
